X: 2
T:The Fourth Measure of the Buffens
M:C
L:1/4
S:Dauney #82
Z:p
K:D dorian
A A/G/ F/G/A/F/|G G/F/ E/F/G/E/|F>E D/E/F/D/|E>D C/D/E/C/|A/B/A/G/ F/G/A
/F/|G/A/G/F/ E/F/G/E/|F E/D/ C/D/E/C/|DEDD||
